X: 1
T: Lt. Col. P.W. Forbes Of Corse Obe
M: 4/4
L: 1/8
R: hornpipe
K: Amaj
c>B Ac e2 (ce)|a2 (a>f) e2 (cB)|A2 (ce) e2 (dc)|B6 e2|
c>B Ac e2 (ce)|a2 (a>f) e2 (A>B)|c2 (ce) e2 (d>B)|A4 (A2fg)|
a2 (a>f) e2 (ce)|d>f af e2 (c>B)|A2 (ce) e2 (dc)|B6 (fg)|
a2 (a>f) e2 (ce)|d>f af e2 (A>B)|c2 (ce) e2 (d>B)|A4 A2z2|
